brandFactory_export/2.Regular/Tarjeta de credito _2Regular.svg

<?xml version="1.0" encoding="UTF-8"?>
<svg width="24px" height="24px" viewBox="0 0 24 24" version="1.1" xmlns="http://www.w3.org/2000/svg" xmlns:xlink="http://www.w3.org/1999/xlink">
    <title>2.Regular/Tarjeta de credito _2Regular</title>
    <g id="Symbols" stroke="none" stroke-width="1" fill="none" fill-rule="evenodd">
        <g id="2.Regular/Tarjeta-de-credito-_2Regular" fill="#5CB615" fill-rule="nonzero">
            <path d="M23.6571429,8.79327731 L23.6571429,13.3142857 C23.6571429,13.3512605 23.6403361,13.3781513 23.6369748,13.4151261 L23.6369748,18.9848739 C23.6369748,19.9495798 22.8369748,20.7361345 21.8554622,20.7361345 L1.82857143,20.7361345 C0.843697479,20.7361345 0.043697479,19.9495798 0.043697479,18.9848739 L0.043697479,13.3714286 C0.0403361345,13.3512605 0.0302521008,13.3344538 0.0302521008,13.3142857 L0.0302521008,8.79327731 C0.0302521008,8.77310924 0.0403361345,8.75630252 0.043697479,8.73613445 L0.043697479,5.7512605 C0.043697479,4.78319328 0.843697479,4 1.82857143,4 L21.8554622,4 C22.8369748,4 23.6369748,4.78319328 23.6369748,5.7512605 L23.6369748,8.69243697 C23.6403361,8.72605042 23.6571429,8.75630252 23.6571429,8.79327731 Z M21.8554622,19.2537815 C22.0067227,19.2537815 22.1310924,19.1327731 22.1344538,18.9815126 L22.1344538,14.0537815 L1.54957983,14.0537815 L1.54957983,18.9848739 C1.54957983,19.1361345 1.67731092,19.2605042 1.82857143,19.2571429 C1.82857143,19.2537815 21.8554622,19.2537815 21.8554622,19.2537815 Z M1.82857143,5.4789916 C1.67731092,5.47563025 1.54957983,5.6 1.54957983,5.7512605 L1.54957983,8.05378151 L22.1310924,8.05378151 L22.1310924,5.7512605 C22.1310924,5.6 22.0067227,5.4789916 21.8521008,5.4789916 L1.82857143,5.4789916 Z M1.54957983,12.5747899 L22.1310924,12.5747899 L22.1310924,9.53277311 L1.54957983,9.53277311 L1.54957983,12.5747899 Z" id="Tarjeta-de-credito-_2Regular"></path>
        </g>
    </g>
</svg>

<svg width="24" height="24" viewBox="0 0 24 24" xmlns="http://www.w3.org/2000/svg"><path d="M23.657 8.793v4.521c0 .037-.017.064-.02.101v5.57c0 .965-.8 1.751-1.782 1.751H1.83c-.985 0-1.785-.786-1.785-1.751V13.37c-.004-.02-.014-.037-.014-.057v-4.52c0-.02.01-.038.014-.058V5.751C.044 4.783.844 4 1.829 4h20.026c.982 0 1.782.783 1.782 1.751v2.941c.003.034.02.064.02.101zm-1.802 10.46a.28.28 0 00.28-.271v-4.928H1.55v4.93c0 .152.127.277.279.273 0-.003 20.026-.003 20.026-.003zM1.83 5.48a.275.275 0 00-.28.272v2.303h20.582V5.75a.275.275 0 00-.279-.272H1.83zm-.28 7.096h20.582V9.533H1.55v3.042z" fill="#5CB615" fill-rule="nonzero"/></svg>
